!!!!SEGMENT: pl-sa--552-a-ix-32--030_anonim--mazur.krn
!!!cenid: 18xx:541
!!!COM: Anonim
!!!COM-rismid: pe30004985
!!!CDT:
!!!CNT:
!!!OTL: Mazur
!!!PDT:
!!!AGN: Secular; Mazurka
!!!SMS-siglum: PL-SA
!!!SMS-shelfmark: 552/A IX 32
!!!SMS-shelfwork: 030 W
!!!SMS-variant:
!!!SMS-altvar:
!!!NIFC-rismid: 1001069572
!!!URL-scan: http://bc.bdsandomierz.pl/dlibra/publication/1308/edition/1276/content
!!!ONB-nifc: Str. 14, s. 5-6
!!!key:
**kern	**kern
*part1	*part1
*staff2	*staff1
*Iempty	*Iempty
*I"	*I"
*I'keyb	*I'keyb
*clefF4	*clefG2
*k[f#c#]	*k[f#c#]
*D:	*D:
*M3/8	*M3/8
=1	=1
!LO:TX:a:t=P:problem=brak partii dolnego głosu	!
!LO:TX:a:t=P:problem=brak kresek taktowych w partii lewej ręki	!LO:TX:a:i:t=Mazur
4.ryy	16.ff#\LL
.	32gg\JJk
.	8aa\L
.	8dd\J
=2	=2
4.ryy	16.ff#\LL
.	32gg\JJk
.	8aa\L
.	8bb\J
=3	=3
4.ryy	16a\LL
.	16b\
.	16cc#\
.	16dd\
.	16ee\
.	16ff#\JJ
=4	=4
4.ryy	8.gg\L
.	16ee\L
.	16aa\
.	16gg\JJ
!!LO:LB:g=original
=5	=5
4.ryy	16.ff#\LL
.	32gg\JJk
.	8aa\L
.	8dd\J
=6	=6
4.ryy	16.ff#\LL
.	32gg\JJk
.	8aa\L
.	8bb\J
=7	=7
4.ryy	16a\LL
.	16b\
.	16cc#\
.	16dd\
.	16ee\
.	16cc#\JJ
=8	=8
4.ryy	16ee\LL
.	16dd\JJ
.	4dd\
=9:|!|:	=9:|!|:
4.ryy	16a\LL
.	16b\
.	16cc#\
.	16dd\
.	16ee\
.	16ff#\JJ
=10	=10
*	*Xtuplet
4.ryy	24ee\LL
.	24dd\
.	24cc#\JJ
.	8dd\L
.	8b\J
=11	=11
4.ryy	16g#X/LL
.	16a/
.	16b/
.	16e/
.	16f#/
.	16g#X/JJ
=12	=12
4.ryy	16a/L
.	16b/
!	!LO:N:vis=8.
.	4cc#/J
=13	=13
4.ryy	16a\LL
.	16b\
.	16cc#\
.	16dd\
.	16ee\
.	16ff#\JJ
=14	=14
4.ryy	24ee\LL
.	24dd\
.	24b\JJ
.	8dd\L
.	8a\J
=15	=15
4.ryy	16g#X/LL
.	16a/
.	16b/
.	16e/
.	16f#/
.	16g#X/JJ
=16	=16
4.ryy	16b\LL
.	16a\JJ
.	4a\
!!LO:LB:g=original
=17:|!|:	=17:|!|:
!	!LO:TX:a:t=P:problem=partia prawej ręki wpisana w pięciolinii lewej ręki
4.ryy	16ee\LL
.	16ff#\
.	16gg\
.	16ee\
.	16aa\
.	16gg\JJ
=18	=18
4.ryy	16ff#\LL
.	16aa\JJ
!	!LO:N:vis=8
.	4dd\
=19	=19
4.ryy	16cc#\LL
.	16ee\JJ
.	8a\L
.	16b\L
.	16cc#\JJ
=20	=20
4.ryy	16dd\LL
.	16ff#\
.	16aa\
.	16gg#X\
.	16bb\
.	16aa\JJ
=21	=21
4.ryy	16ee\LL
.	16ff#\
.	16gg\
.	16ee\
.	16aa\
.	16gg\JJ
=22	=22
4.ryy	16ff#\LL
.	16aa\JJ
!	!LO:N:vis=8
.	4dd\
=23	=23
4.ryy	(>16cc#\LL
.	16ee\JJ)
.	8a\L
.	16b\L
.	16cc#\JJ
=24	=24
4.ryy	16ee\LL
.	16dd\JJ
!	!LO:N:vis=8
!	!LO:TX:a:t=P:problem=fermata nad kreską
.	4dd\
=:|!	=:|!;>
*-	*-
!!!system-decoration: {(s1,s2)}
!!!RDF**kern: > = above
!!!RDF**kern: < = below
!!!EED: Mateusz Mrugas
!!!EST: 2020-12-13
!!!AIN: 1 empty
!!!ENC: Anastazja Marusiak
!!!END: 2020-06-18
